X:3210
T:Kas-a-barh/An Dro
O:england
C:Perroches: Midi Breton
M:4/4
L:1/8
K:G
GABc dedc|B2G2 d2d2|GABc dedc|B2G2 d4:|\
B2cd B2d2|c2Ac B2G2|
B2cd B3d|cBAB G4|\
B2cd B2d2|cBAc B2G2|B2cd B2d2|cBAB G4|]


